cssgg/play-list-remove.svg

<svg
  width="24"
  height="24"
  viewBox="0 0 24 24"
  fill="none"
  xmlns="http://www.w3.org/2000/svg"
>
  <path d="M15.9644 4.63379H3.96442V6.63379H15.9644V4.63379Z" fill="currentColor" />
  <path d="M15.9644 8.63379H3.96442V10.6338H15.9644V8.63379Z" fill="currentColor" />
  <path d="M3.96442 12.6338H11.9644V14.6338H3.96442V12.6338Z" fill="currentColor" />
  <path
    d="M12.9645 13.7093L14.3787 12.295L16.5 14.4163L18.6213 12.2951L20.0355 13.7093L17.9142 15.8305L20.0356 17.9519L18.6214 19.3661L16.5 17.2447L14.3786 19.3661L12.9644 17.9519L15.0858 15.8305L12.9645 13.7093Z"
    fill="currentColor"
  />
</svg>

<svg viewBox="0 0 24 24" xmlns="http://www.w3.org/2000/svg"><g><path d="M15.96 4.63h-12v2h11.99v-2Z"/><path d="M15.96 8.63h-12v2h11.99V8.62Z"/><path d="M3.96 12.63h7.99v2h-8v-2Z"/><path d="M12.96 13.7l1.41-1.42 2.12 2.12 2.12-2.13 1.41 1.41 -2.13 2.12 2.12 2.12 -1.42 1.41 -2.13-2.13 -2.13 2.12 -1.42-1.42 2.12-2.13 -2.13-2.13Z"/></g></svg>
